static/assets/img/icons/theme/shopping/chart-line-1.svg

<svg height="24" viewBox="0 0 24 24" width="24" xmlns="http://www.w3.org/2000/svg"><g fill="none" fill-rule="evenodd"><path d="m0 0h24v24h-24z" opacity="0"/><g fill="#000" fill-rule="nonzero"><path d="m5 19h15c.5522847 0 1 .4477153 1 1s-.4477153 1-1 1h-16c-.55228475 0-1-.4477153-1-1v-16c0-.55228475.44771525-1 1-1s1 .44771525 1 1z"/><path d="m8.7295372 14.6839411c-.37773025.4029123-1.01056606.4233264-1.41347833.0455961s-.42332633-1.0105661-.04559607-1.4134783l3.75-4.00000003c.3653097-.38966366.9723551-.42345599 1.3786565-.07674552l2.9597357 2.52564115 3.8562622-4.88459879c.3422201-.43347878.9710483-.50745857 1.4045271-.16523848.4334788.3422201.5074586.97104828.1652385 1.40452706l-4.5 5.70000001c-.3514855.445215-1.0025121.5092472-1.4340021.1410423l-3.0240513-2.5805238z" opacity=".3"/></g></g></svg>

<svg width="24px" height="24px" viewBox="0 0 24 24" version="1.1" xmlns="http://www.w3.org/2000/svg" xmlns:xlink="http://www.w3.org/1999/xlink">
    <title>Icon For Chart-line#1</title>
    <g stroke="none" stroke-width="1" fill="none" fill-rule="evenodd">
        <rect opacity="0" x="0" y="0" width="24" height="24"></rect>
        <path d="M5,19 L20,19 C20.5522847,19 21,19.4477153 21,20 C21,20.5522847 20.5522847,21 20,21 L4,21 C3.44771525,21 3,20.5522847 3,20 L3,4 C3,3.44771525 3.44771525,3 4,3 C4.55228475,3 5,3.44771525 5,4 L5,19 Z" fill="#000000" fill-rule="nonzero"></path>
        <path d="M8.7295372,14.6839411 C8.35180695,15.0868534 7.71897114,15.1072675 7.31605887,14.7295372 C6.9131466,14.3518069 6.89273254,13.7189711 7.2704628,13.3160589 L11.0204628,9.31605887 C11.3857725,8.92639521 11.9928179,8.89260288 12.3991193,9.23931335 L15.358855,11.7649545 L19.2151172,6.88035571 C19.5573373,6.44687693 20.1861655,6.37289714 20.6196443,6.71511723 C21.0531231,7.05733733 21.1271029,7.68616551 20.7848828,8.11964429 L16.2848828,13.8196443 C15.9333973,14.2648593 15.2823707,14.3288915 14.8508807,13.9606866 L11.8268294,11.3801628 L8.7295372,14.6839411 Z" fill="#000000" fill-rule="nonzero" opacity="0.3"></path>
    </g>
</svg>
